X:83
T:Planxty Irwin
C:Turlough Carolan
R:planxty
I:speed 300
M:3/4
K:G
d2|g4f2|e3fg2|d4c2|B3AG2|c4A2|B3cd2|F4 G2|A4 d2|\
g4f2|e3f g2|d4 c2|B3A G2|c4A2|B3cd2|G4F2|G4:|*
d2|g4g2|g3fg2|a3ba2|a2f2d2|b4b2|a3bg2|f3ge2|\
d3ef2|g4f2|e3fg2|d4c2|B3AG2|c4A2|B3cd2|G4F2|G4:|**
<end>
<start>
